X: 1
T: Ievan Polkka
Z: Andy da pfīfære smit
S: https://thesession.org/tunes/418#setting48219
R: polka
M: 2/4
L: 1/8
K: Amin
|:AA A>B|cA Ac|BG GB|cA A2|
AA A>B|cA AB/c/|dd cB|AG A2:|
|:ee dc|BG GB|dd cB|cA A2|
ee dc|BG GB|dd cB|1 AG A2:|2 A4||

